X:35
T:Elizabeth Canning. ThoH.035
Q:3/8=100
M:6/8
L:1/8
B:Thompson's Compleat Collection of 120 Favourite Hornpipes.
Z:Village Music Project, Simon Wilson 2016
O:England.
N:Elizabeth Canning was the subject of a celebrated mystery.
K:A
(c/d/)|ecA aed|{d}c2A- Aae|f2d- daf|g2e- efg|
{fg}a3ecA|fdB G2E|Fag fed|c2A-A2:|
|:(c/d/)|eca eca|c2A- ABc|dBf dBf|G2E- EA=G|
F2D- DAF|E2C- Cfg|aec Bed|{d}c2A-A2:|

